!!!COM: Sergey (Sergeyevich) Prokofiev
!!!OTL: [T579_Pro-w37p15s2-4]
**kern	**kern	**dynam	**kern	**dynam
*grp:A	*grp:A	*grp:A	*grp:B	*grp:B
*part2	*part2	*part2	*part1	*part1
*staff3	*staff2	*	*staff1	*
*I"Piano	*	*	*I"Violin	*
*I'Pno.	*	*	*I'Vln.	*
!!pagebreak:original
*clefF4	*clefG2	*	*clefG2	*
*k[]	*k[]	*	*k[]	*
*C:	*C:	*	*C:	*
*M3/4	*M3/4	*	*M3/4	*
=1	=1	=1	=1	=1
!	!	!	!LO:TX:t=[[half-dot]=90]	!
4ryy	4ryy	4ryy	(8auL	p
.	.	.	8bJ	.
4ryy	4ryy	.	8cc)	.
.	.	.	8r	.
4ryy	4ryy	.	(8aLv	.
.	.	.	8bJ	.
=2	=2	=2	=2	=2
4ryy	4ryy	.	8cc)	.
.	.	.	8r	.
4ryy	4ryy	.	(8aaL	.
.	.	.	8ff)	.
4ryy	4ryy	.	(8cc'	.
.	.	.	8dd'J)	.
=3	=3	=3	=3	=3
4ryy	4ryy	.	(8aL	.
.	.	.	8bJ	.
4ryy	4ryy	.	8cc)	.
.	.	.	8r	.
4ryy	4ryy	.	(8aL	.
.	.	.	8bJ	.
=4	=4	=4	=4	=4
4ryy	4ryy	.	8cc)	.
.	.	.	8r	.
4ryy	4ryy	.	(8aaL	.
.	.	.	8ff)	.
4ryy	4ryy	.	(8cc'	.
.	.	.	8dd'J)	.
=5	=5	=5	=5	=5
!	!	!	!LO:TX:a:t=spicc.	!
4ryy	4ryy	.	8a'L	.
.	.	.	8b'	.
4ryy	4ryy	.	8cc'	.
.	.	.	8dd'	.
4ryy	4ryy	.	8cc'	.
.	.	.	8dd'J	.
=6	=6	=6	=6	=6
4ryy	4ryy	4ryy	8dd#X'L	<
.	.	.	8ff#X'	.
4ryy	4ryy	.	8bb'	.
.	.	.	8ddd#X'	.
4ryy	4ryy	4ryy	8ccc#X'	.
.	.	.	8ddd#'J	[
!!linebreak:original
=7	=7	=7	=7	=7
4ryy	4ryy	4ryy	8eee'^L	mf
.	.	.	8bb'	.
8ryy	.	.	.	.
4ryy	4ryy	.	8gg#X'	.
.	.	.	8ee'	.
4ryy	4ryy	.	8ee'	.
.	.	.	8ee'J	.
=8	=8	=8	=8	=8
4ryy	4ryy	.	8ee'L	.
.	.	.	8eee'	.
4ryy	4ryy	4ryy	8eee'	.
.	.	.	8eee'J	.
!	!	!	!LO:TX:a:t=pizz.	!
4ryy	4ryy	4ryy	4ee	.
=9	=9	=9	=9	=9
!	!	!	!LO:TX:a:t=arco	!
4ryy	4ryy	4ryy	(8eeuL	.
.	.	.	8ffJ	.
4ryy	4ryy	.	8gg)	.
.	.	.	8r	.
4ryy	4ryy	.	(8eeL	.
.	.	.	8ffJ	.
=10	=10	=10	=10	=10
4ryy	4ryy	.	8gg)	.
.	.	.	8r	.
4ryy	4ryy	.	(8dddL	.
.	.	.	8bb-X)	.
4ryy	4ryy	.	(8ff'	.
.	.	.	8gg'J)	.
=11	=11	=11	=11	=11
4ryy	4ryy	.	(8eeL	.
.	.	.	8ffJ	.
4ryy	4ryy	.	8gg)	.
.	.	.	8r	.
4ryy	4ryy	.	(8eeL	.
.	.	.	8ffJ	.
=12	=12	=12	=12	=12
4ryy	4ryy	.	8gg)	.
.	.	.	8r	.
4ryy	4ryy	.	(8dddL	.
.	.	.	8bb-X)	.
4ryy	4ryy	.	(8ff'	.
.	.	.	8gg'J)	.
!!linebreak:original
=13	=13	=13	=13	=13
4ryy	4ryy	.	8aa-X'^	.
.	.	.	8r	.
4r^yy	4ryy	.	8aa-uL	.
.	.	.	8ee-X	.
4ryy	4ryy	.	8cc	.
.	.	.	8ee-J	.
=14	=14	=14	=14	=14
4ryy	4ryy	.	8aa-X'	.
.	.	.	8r	.
4r'yy	4ryy	.	8aa-uL	.
.	.	.	8ff	.
4ryy	4ryy	.	8cc	.
.	.	.	8ffJ	.
=15	=15	=15	=15	=15
4ryy	4ryy	.	8aa-X'	.
.	.	.	8r	.
4r'yy	4ryy	.	8aa-uL	.
.	.	.	8gg	.
4ryy	4ryy	.	8ee-X	.
.	.	.	8ggJ	.
=16	=16	=16	=16	=16
4ryy	4ryy	.	8aa-X'	.
.	.	.	8r	.
4r'yy	4ryy	.	8aa-L	.
.	.	.	8ff	.
4ryy	4ryy	.	8dd-X	.
.	.	.	8ffJ	.
=17	=17	=17	=17	=17
4ryy	4ryy	.	8aa-X'	.
.	.	.	8r	.
!	!	!	!LO:TX:a:t=II	!
!	!LO:TX:b:i:t=poco cresc.	!	!LO:TX:b:i:t=poco cresc.	!
.	8ryy	.	.	.
4r'yy	4ryy	.	8aa-L	.
.	.	.	8aa-	.
4ryy	4ryy	.	8ee-X	.
.	.	.	8ccJ	.
=18	=18	=18	=18	=18
4ryy	4ryy	.	8a-X'	.
.	.	.	8r	.
.	8ryy	.	.	.
4r'yy	4ryy	.	8aa-XL	.
.	.	.	8aa-	.
4ryy	4ryy	.	8ff	.
.	.	.	8ee-XJ	.
=	=	=	=	=
*-	*-	*-	*-	*-
!!!system-decoration: s1[({(s2,s3)})]
!!!RDF**kern: > = above
!!!RDF**kern: < = below
